X: 660
T: Jian lantan
%%abc-version 2.0
%%abcx-abcm2ps-target-version 5.9.1 (29 Sep 2008)
%%abc-creator hum2abc beta
%%abcx-conversion-date 2013/10/02 07:52:30
%%abc-edited-by Helmut Schaffrath
%%humdrum-veritas 1872202230
%%humdrum-veritas-data 666787455
%%continueall 1
%%barnumbers 0
L: 1/8
M: 4/4
K: F
c2c2d c B c [I:setbarnb 1]| 
d f c BG2F G | 
B2G B c d c G | 
F> G F EF4 | 
B2B Gc2c d | 
c B G cE2C2 | 
c A G cG2E2 | 
FC2DC4 |]  



